X:1
T:The Prodigal Child
T:W. Howard Doane
T:The Prodigal Child
T:Public Domain
T:Public Domain
C:W. Howard Doane
Z:Public Domain
%%score ( 1 2 ) ( 3 4 )
L:1/8
M:4/4
K:Eb
V:1 treble 
V:2 treble 
V:3 bass 
V:4 bass 
V:1
 [EB]2 | (B4 G2) [EG]2 | ([EG]4 [B,E]2) [EB][EB] | [Ec]4 [EB]2 [EG]2 | [DF]6 [DF][DF] | %5
w: 1.~Come|home! * come|You * are wea-|ry at heart,|For the way|
w: 2.~Come|home! * come|For * we watch|and we wait,|And we stand|
w: 3.~Come|home! * come|From * the sor-|row and blame,|From the sin|
w: 4.~Come|home! * come|There * is bread|and to spare,|And a warm|
 [DF]4 [EG]2 [FA]2 | (G4 B2) [EG]E | [DF]4 [EG]2 [FA]2 | (G4 B2) z2 | [Ec]4 [Ee]2- (3[Ee][Ed][Ec] | %10
w: has been dark,|And * so lone-|wild. O pro-|di- *|child! Come * home! oh|
w: at the gate,|While * the sha-|piled. O pro-|di- *|child! Come * home! oh|
w: and the shame,|And * the tempt-|smiled, O pro-|di- *|child! Come * home! oh|
w: wel- come there,|Then, * to friends|ciled, O pro-|di- *|child! Come * home! oh|
 [EB]6 [EG]2 | [DF]4 [DB]2- (3[DB]([DA][DF]) | E6 z2 ||"^Refrain" [EA]8 | [EG]8 | %15
w: come home!|||||
w: come home!|Come home! * Come, *|oh|home!||
w: come home!|||||
w: come home!|||||
 [DB]4 [DA]2 [DF]2 | (E3 C2 B,2) |] %17
w: ||
w: ||
w: ||
w: ||
V:2
 x2 | E6 x2 | x8 | x8 | x8 | x8 | E6 E x | x8 | E6 x2 | x8 | x8 | x8 | E6 x2 || x8 | x8 | x8 | %16
w: |home!|||||ly and||gal||||||||
w: |home!|||||dows are||gal||||come||||
w: |home!|||||er that||gal||||||||
w: |home!|||||re- con-||gal||||||||
 E6 x |] %17
w: |
w: |
w: |
w: |
V:3
 [E,G,]2 | (G,4 B,2) [E,B,]2 | (B,4 G,2) [E,G,][E,G,] | [E,A,]4 [E,G,]2 [E,B,]2 | %4
w: ~|~ * ~|~ * ~ ~|~ ~ ~|
 [B,,B,]6 [B,,B,][B,,B,] | [B,,B,]4 [B,,B,]2 [B,,B,]2 | (B,4 G,2) [E,B,][E,G,] | %7
w: ~ ~ ~|~ ~ ~|~ * ~ ~|
 [B,,B,]4 [B,,B,]2 [B,,B,]2 | (B,4 G,2) z2 | [A,,A,]4 [A,,C]2- (3[A,,C][A,,B,][A,,A,] | %10
w: ~ ~ ~|~ *|~ ~ * ~ ~|
 [E,G,]6 [E,B,]2 | [B,,B,]4 [B,,F,]2- [B,,F,][B,,A,] | [E,G,]6 z2 || (z2 A,,2) A,,4 | z2 E,2 E,4 | %15
w: ~ ~|Come home! * Come|home!|||
 [B,,F,]4 [B,,F,]2 [B,,A,]2 | (G,2 A,2 G,2) x |] %17
w: ||
V:4
 x2 | E,6 x2 | E,6 x2 | x8 | x8 | x8 | E,6 x2 | x8 | E,6 x2 | x8 | x8 | x8 | x8 || C8 | B,8 | x8 | %16
w: |~|~||||~||~||||||||
 E,6 x |] %17
w: |

